weblate_web/static/img/icon-feedback.svg

<svg xmlns="http://www.w3.org/2000/svg" xmlns:svg="http://www.w3.org/2000/svg" id="svg4" width="41" height="42" version="1.1" viewBox="-1 -1 43 44.049"><metadata id="metadata10"/><path id="path2" fill="none" stroke="#1fa385" stroke-opacity="1" stroke-width="1" d="M 30.75,20.670837 V 2.2208368 A 2.05,2.05 0 0 0 28.7,0.17083678 H 2.0499999 A 2.05,2.05 0 0 0 -1.1904763e-7,2.2208368 V 30.920837 L 8.1999999,22.720837 H 28.7 a 2.05,2.05 0 0 0 2.05,-2.05 m 8.2,-12.3000002 h -4.1 V 26.820837 H 8.1999999 v 4.1 a 2.05,2.05 0 0 0 2.0500001,2.05 H 32.8 l 8.2,8.2 v -30.75 A 2.05,2.05 0 0 0 38.95,8.3708368 Z"/></svg>

<svg width="41" height="42" version="1.1" viewBox="-1 -1 43 44.049" xmlns="http://www.w3.org/2000/svg"><path d="m30.75 20.671v-18.45a2.05 2.05 0 0 0-2.05-2.05h-26.65a2.05 2.05 0 0 0-2.05 2.05v28.7l8.2-8.2h20.5a2.05 2.05 0 0 0 2.05-2.05m8.2-12.3h-4.1v18.45h-26.65v4.1a2.05 2.05 0 0 0 2.05 2.05h22.55l8.2 8.2v-30.75a2.05 2.05 0 0 0-2.05-2.05z" fill="none" stroke="#1fa385"/></svg>
